SVG_Azure_Grouped/Data/SQL Elastic Job Agent.svg

<?xml version="1.0" encoding="UTF-8" standalone="no"?>
<!-- Generated by Microsoft Visio, SVG Export SQL Elastic Job Agent.svg Page-1 -->

<svg
   xmlns:dc="http://purl.org/dc/elements/1.1/"
   xmlns:cc="http://creativecommons.org/ns#"
   xmlns:rdf="http://www.w3.org/1999/02/22-rdf-syntax-ns#"
   xmlns:svg="http://www.w3.org/2000/svg"
   xmlns="http://www.w3.org/2000/svg"
   xmlns:sodipodi="http://sodipodi.sourceforge.net/DTD/sodipodi-0.dtd"
   xmlns:inkscape="http://www.inkscape.org/namespaces/inkscape"
   width="0.70865792in"
   height="0.78747237in"
   viewBox="0 0 51.023313 56.698151"
   xml:space="preserve"
   class="st11"
   version="1.1"
   id="svg93"
   sodipodi:docname="SQL Elastic Job Agent.svg"
   style="font-size:12px;overflow:visible;color-interpolation-filters:sRGB;fill:none;fill-rule:evenodd;stroke-linecap:square;stroke-miterlimit:3"
   inkscape:version="0.92.5 (2060ec1f9f, 2020-04-08)"><metadata
   id="metadata99"><rdf:RDF><cc:Work
       rdf:about=""><dc:format>image/svg+xml</dc:format><dc:type
         rdf:resource="http://purl.org/dc/dcmitype/StillImage" /></cc:Work></rdf:RDF></metadata><defs
   id="defs97" /><sodipodi:namedview
   pagecolor="#ffffff"
   bordercolor="#666666"
   borderopacity="1"
   objecttolerance="10"
   gridtolerance="10"
   guidetolerance="10"
   inkscape:pageopacity="0"
   inkscape:pageshadow="2"
   inkscape:window-width="640"
   inkscape:window-height="480"
   id="namedview95"
   showgrid="false"
   inkscape:zoom="1.8365233"
   inkscape:cx="34.015635"
   inkscape:cy="18.900351"
   inkscape:window-x="0"
   inkscape:window-y="0"
   inkscape:window-maximized="0"
   inkscape:current-layer="svg93" />
	<style
   type="text/css"
   id="style2">
	<![CDATA[
		.st1 {fill:#5bb4da;stroke:none;stroke-linecap:butt;stroke-width:1.9104}
		.st2 {fill:#3999c7;stroke:none;stroke-linecap:butt;stroke-width:1.9104}
		.st3 {fill:#ffffff;stroke:none;stroke-linecap:butt;stroke-width:1.9104}
		.st4 {fill:#9fa0a2;stroke:none;stroke-linecap:butt;stroke-width:1.9104}
		.st5 {fill:#ffffff}
		.st6 {stroke:none;stroke-linecap:butt;stroke-width:1.9104}
		.st7 {fill:#7c7b7b;stroke:none;stroke-linecap:butt;stroke-width:1.9104}
		.st8 {fill:#1e1e1e;stroke:none;stroke-linecap:butt;stroke-width:1.9104}
		.st9 {fill:#7fbb42;stroke:none;stroke-linecap:butt;stroke-width:1.9104}
		.st10 {fill:#b8d433;stroke:none;stroke-linecap:butt;stroke-width:1.9104}
		.st11 {fill:none;fill-rule:evenodd;font-size:12px;overflow:visible;stroke-linecap:square;stroke-miterlimit:3}
	]]>
	</style>

	<g
   id="g91"
   transform="translate(-5.1024712,-5.6661451)">
		<title
   id="title4">Page-1</title>
		<g
   id="group19023-1"
   transform="translate(5.10236,-34.0157)">
			<title
   id="title6">SQL Elastic Job Agent.19023</title>
			<g
   id="group19024-2">
				<title
   id="title8"> Icon_SQLJobAgent_3-2-2018</title>
				<g
   id="shape19025-3"
   transform="translate(25.2331,-15.5882)">
					<title
   id="title10">path6</title>
					<path
   d="M 15.1,82.3 A 13.2246,12.3102 0 0 1 6,61.07 H 0 v 27.88 h 3.95 v 7.43 a 34.6829,32.2848 -180 0 0 9.81,-1.79 l -2.94,-2.76 -1.8,-1.68 1.8,-1.67 2,-1.87 1.8,-1.67 1.8,1.67 1.72,1.61 V 81.97 A 13.1486,12.2394 0 0 1 15.1,82.3 Z"
   class="st1"
   id="path12"
   inkscape:connector-curvature="0"
   style="fill:#5bb4da;stroke:none;stroke-width:1.91040003;stroke-linecap:butt" />
				</g>
				<g
   id="shape19026-5"
   transform="translate(7.54967,-15.6354)">
					<title
   id="title15">path8</title>
					<path
   d="m 4.33,94.59 a 34.2015,31.8367 -180 0 0 9.4,1.79 V 89 h 4.13 V 61.1 H 0 v 27.12 l 1.65,-1.53 1.8,-1.68 1.79,1.68 2.01,1.86 1.79,1.67 -1.79,1.68 z"
   class="st2"
   id="path17"
   inkscape:connector-curvature="0"
   style="fill:#3999c7;stroke:none;stroke-width:1.91040003;stroke-linecap:butt" />
				</g>
				<g
   id="shape19027-7"
   transform="translate(7.54967,-45.3024)">
					<title
   id="title20">path10</title>
					<path
   d="M 32.17,87.35 A 37.647,35.044 -180 0 0 17.89,84.99 C 8.03,85.15 0,87.72 0,90.77 c 0,3.04 8.13,5.61 17.96,5.61 h 2.1 a 13.2246,12.3102 0 0 1 12.11,-9.03 z"
   class="st3"
   id="path22"
   inkscape:connector-curvature="0"
   style="fill:#ffffff;stroke:none;stroke-width:1.91040003;stroke-linecap:butt" />
				</g>
				<g
   id="shape19028-9">
					<title
   id="title25">path12</title>
					<path
   d="m 23.81,75.72 v 15.61 l -4.48,-4.2 -2,1.89 5.9,5.49 2,1.87 2.03,-1.87 5.9,-5.49 -2,-1.89 -4.51,4.2 V 75.72 Z M 13,74.56 11,72.7 2.84,80.29 V 74.38 H 0 V 84.8 H 11.2 V 82.16 H 4.84 Z"
   class="st4"
   id="path27"
   inkscape:connector-curvature="0"
   style="fill:#9fa0a2;stroke:none;stroke-width:1.91040003;stroke-linecap:butt" />
				</g>
				<g
   id="shape19029-11"
   transform="translate(29.6413,-32.0489)">
					<title
   id="title30">ellipse14</title>
					<ellipse
   cx="10.6911"
   cy="86.426003"
   rx="10.6911"
   ry="9.9519196"
   class="st3"
   id="ellipse32"
   style="fill:#ffffff;stroke:none;stroke-width:1.91040003;stroke-linecap:butt" />
				</g>
				<g
   id="shape19030-13"
   transform="translate(31.4907,-34.4856)">
					<title
   id="title35">path16</title>
					<path
   d="M 8.16,80.37 A 9.19641,8.56054 -180 0 0 0,89.81 a 9.17108,8.53695 -180 1 0 14.82,-7.6 9.09507,8.4662 -180 0 0 -5.67,-1.86 5.70026,5.30612 0 0 1 -0.99,0 z"
   class="st5"
   id="path37"
   inkscape:connector-curvature="0"
   style="fill:#ffffff" />
					<path
   d="M 8.16,80.37 A 9.19641,8.56054 -180 0 0 0,89.81 a 9.17108,8.53695 -180 1 0 14.82,-7.6 9.09507,8.4662 -180 0 0 -5.67,-1.86 5.70026,5.30612 0 0 1 -0.99,0"
   class="st6"
   id="path39"
   inkscape:connector-curvature="0"
   style="stroke:none;stroke-width:1.91040003;stroke-linecap:butt" />
				</g>
				<g
   id="shape19031-16"
   transform="translate(35.6456,-32.0254)">
					<title
   id="title42">path18</title>
					<path
   d="M 15.3,85.39 A 10.6911,9.95192 -180 0 0 11.27,78.62 C 10.84,78.34 10.41,78.03 9.96,77.82 L 9.1,79.33 a 5.64959,5.25895 0 0 1 0.98,0.63 8.76573,8.15963 0 0 1 3.3,5.62 8.86706,8.25396 0 0 1 -7.91,9.1 A 8.8164,8.20679 0 0 1 0.86,94 L 0,95.51 a 10.1338,9.4331 -180 0 0 5.67,0.87 10.8685,10.117 -180 0 0 7.28,-3.68 10.5645,9.834 -180 0 0 2.35,-7.31 z"
   class="st2"
   id="path44"
   inkscape:connector-curvature="0"
   style="fill:#3999c7;stroke:none;stroke-width:1.91040003;stroke-linecap:butt" />
				</g>
				<g
   id="shape19032-18"
   transform="translate(29.6413,-32.8979)">
					<title
   id="title47">path20</title>
					<path
   d="M 5.04,93.81 A 8.8924,8.27754 0 0 1 15.18,80.25 l 0.88,-1.51 A 10.5391,9.81042 -180 0 0 9.68,77.3 10.9192,10.1642 -180 0 0 2.31,81.07 10.5391,9.81042 -180 0 0 0,88.38 10.8685,10.117 -180 0 0 3.93,95.1 10.3365,9.62176 -180 0 0 6.18,96.38 l 0.96,-1.51 a 8.91773,8.30113 0 0 1 -2.1,-1.06 z"
   class="st1"
   id="path49"
   inkscape:connector-curvature="0"
   style="fill:#5bb4da;stroke:none;stroke-width:1.91040003;stroke-linecap:butt" />
				</g>
				<g
   id="shape19033-20"
   transform="translate(40.2518,-39.3832)">
					<title
   id="title52">path22</title>
					<path
   d="M 4.64,96.38 0.54,94.99 A 0.871506,0.811246 0 1 1 1.173362,93.4807 L 5.27,94.87 a 0.861372,0.801813 0 0 1 0.506689,1.03764 0.937375,0.872561 0 0 1 -1.14005,0.471655 z"
   class="st7"
   id="path54"
   inkscape:connector-curvature="0"
   style="fill:#7c7b7b;stroke:none;stroke-width:1.91040003;stroke-linecap:butt" />
				</g>
				<g
   id="shape19034-22"
   transform="translate(38.8631,-40.3737)">
					<title
   id="title57">path24</title>
					<path
   d="M 1.42,96.38 A 1.41873,1.32063 0 0 1 0,95.06 v -6.77 a 1.4314,1.33242 0 0 1 2.86,0 v 6.77 a 1.41873,1.32063 0 0 1 -1.44,1.32 z"
   class="st4"
   id="path59"
   inkscape:connector-curvature="0"
   style="fill:#9fa0a2;stroke:none;stroke-width:1.91040003;stroke-linecap:butt" />
				</g>
				<g
   id="shape19035-24"
   transform="translate(38.2804,-39.8548)">
					<title
   id="title62">path26</title>
					<path
   d="m 2,86.94 a 0.861372,0.801813 0 0 1 0.861372,0.801813 L 2.86,94.54 a 0.87404,0.81360593 0 0 1 -1.74808,0 L 1.11,87.77 A 0.861372,0.801813 0 0 1 1.971372,86.968187 Z M 1.98,85.93 A 1.95075,1.81587 -180 0 0 0,87.77 v 6.77 a 1.97609,1.83945 -180 0 0 3.95,0 V 87.77 A 1.95075,1.81587 -180 0 0 1.98,85.93 Z"
   class="st5"
   id="path64"
   inkscape:connector-curvature="0"
   style="fill:#ffffff" />
					<path
   d="m 2,86.94 a 0.861372,0.801813 0 0 1 0.861372,0.801813 L 2.86,94.54 a 0.87404,0.81360593 0 0 1 -1.74808,0 L 1.11,87.77 A 0.861372,0.801813 0 0 1 1.971372,86.968187 M 1.98,85.93 A 1.95075,1.81587 -180 0 0 0,87.77 v 6.77 a 1.97609,1.83945 -180 0 0 3.95,0 V 87.77 A 1.95075,1.81587 -180 0 0 1.98,85.93"
   class="st6"
   id="path66"
   inkscape:connector-curvature="0"
   style="stroke:none;stroke-width:1.91040003;stroke-linecap:butt" />
				</g>
				<g
   id="shape19036-27"
   transform="translate(39.0151,-40.5387)">
					<title
   id="title69">circle28</title>
					<ellipse
   cx="1.24139"
   cy="95.222397"
   rx="1.24139"
   ry="1.15555"
   class="st8"
   id="ellipse71"
   style="fill:#1e1e1e;stroke:none;stroke-width:1.91040003;stroke-linecap:butt" />
				</g>
				<g
   id="shape19037-29"
   transform="translate(37.8497,-11.5791)">
					<title
   id="title74">path30</title>
					<path
   d="M 13,96.38 V 85.95 h -2.84 v 5.92 L 2,84.28 0,86.14 8.16,93.74 H 1.8 v 2.64 z"
   class="st4"
   id="path76"
   inkscape:connector-curvature="0"
   style="fill:#9fa0a2;stroke:none;stroke-width:1.91040003;stroke-linecap:butt" />
				</g>
				<g
   id="shape19038-31"
   transform="translate(11.1725,-47.4956)">
					<title
   id="title79">path32</title>
					<path
   d="M 25.03,90.2 A 37.6724,35.0675 -180 0 0 14.24,88.93 C 6.41,88.93 0,90.58 0,92.65 c 0,2.08 6.49,3.73 14.34,3.73 h 3.06 a 13.2753,12.3574 0 0 1 7.63,-6.18 z"
   class="st9"
   id="path81"
   inkscape:connector-curvature="0"
   style="fill:#7fbb42;stroke:none;stroke-width:1.91040003;stroke-linecap:butt" />
				</g>
				<g
   id="shape19039-33"
   transform="translate(11.1725,-48.9814)">
					<title
   id="title84">path34</title>
					<path
   d="M 25.01,91.68 A 37.039,34.478 -180 0 0 14.24,90.41 C 6.41,90.41 0,92.06 0,94.14 c 0,0.82 1.14,1.65 2.96,2.24 a 34.6829,32.2848 0 0 1 11.28,-1.42 48.3635,45.0195 0 0 1 5.06,0.24 13.2499,12.3338 0 0 1 5.71,-3.52 z"
   class="st10"
   id="path86"
   inkscape:connector-curvature="0"
   style="fill:#b8d433;stroke:none;stroke-width:1.91040003;stroke-linecap:butt" />
				</g>
			</g>
		</g>
	</g>
</svg>

<?xml version="1.0" encoding="UTF-8" standalone="no"?>
<!DOCTYPE svg PUBLIC "-//W3C//DTD SVG 1.1//EN" "http://www.w3.org/Graphics/SVG/1.1/DTD/svg11.dtd">
<!-- Generated by Microsoft Visio, SVG Export SQL Elastic Job Agent.svg Page-1 -->
<svg xmlns="http://www.w3.org/2000/svg" xmlns:xlink="http://www.w3.org/1999/xlink" xmlns:ev="http://www.w3.org/2001/xml-events"
		width="0.850394in" height="1.33858in" viewBox="0 0 61.2283 96.378" xml:space="preserve" color-interpolation-filters="sRGB"
		class="st11">
	<style type="text/css">
	<![CDATA[
		.st1 {fill:#5bb4da;stroke:none;stroke-linecap:butt;stroke-width:1.9104}
		.st2 {fill:#3999c7;stroke:none;stroke-linecap:butt;stroke-width:1.9104}
		.st3 {fill:#ffffff;stroke:none;stroke-linecap:butt;stroke-width:1.9104}
		.st4 {fill:#9fa0a2;stroke:none;stroke-linecap:butt;stroke-width:1.9104}
		.st5 {fill:#ffffff}
		.st6 {stroke:none;stroke-linecap:butt;stroke-width:1.9104}
		.st7 {fill:#7c7b7b;stroke:none;stroke-linecap:butt;stroke-width:1.9104}
		.st8 {fill:#1e1e1e;stroke:none;stroke-linecap:butt;stroke-width:1.9104}
		.st9 {fill:#7fbb42;stroke:none;stroke-linecap:butt;stroke-width:1.9104}
		.st10 {fill:#b8d433;stroke:none;stroke-linecap:butt;stroke-width:1.9104}
		.st11 {fill:none;fill-rule:evenodd;font-size:12px;overflow:visible;stroke-linecap:square;stroke-miterlimit:3}
	]]>
	</style>

	<g>
		<title>Page-1</title>
		<g id="group18587-1" transform="translate(5.10236,-34.0157)">
			<title>SQL Elastic Job Agent.18587</title>
			<g id="group18588-2">
				<title> Icon_SQLJobAgent_3-2-2018</title>
				<g id="shape18589-3" transform="translate(25.2331,-15.5882)">
					<title>path6</title>
					<path d="M15.1 82.3 A13.2246 12.3102 0 0 1 6 61.07 L0 61.07 L0 88.95 L3.95 88.95 L3.95 96.38 A34.6829 32.2848
								 -180 0 0 13.76 94.59 L10.82 91.83 L9.02 90.15 L10.82 88.48 L12.82 86.61 L14.62 84.94 L16.42 86.61
								 L18.14 88.22 L18.14 81.97 A13.1486 12.2394 0 0 1 15.1 82.3 Z" class="st1"/>
				</g>
				<g id="shape18590-5" transform="translate(7.54967,-15.6354)">
					<title>path8</title>
					<path d="M4.33 94.59 A34.2015 31.8367 -180 0 0 13.73 96.38 L13.73 89 L17.86 89 L17.86 61.1 L0 61.1 L0 88.22 L1.65
								 86.69 L3.45 85.01 L5.24 86.69 L7.25 88.55 L9.04 90.22 L7.25 91.9 L4.33 94.59 Z" class="st2"/>
				</g>
				<g id="shape18591-7" transform="translate(7.54967,-45.3024)">
					<title>path10</title>
					<path d="M32.17 87.35 A37.647 35.044 -180 0 0 17.89 84.99 C8.03 85.15 0 87.72 0 90.77 C0 93.81 8.13 96.38 17.96
								 96.38 L20.06 96.38 A13.2246 12.3102 0 0 1 32.17 87.35 Z" class="st3"/>
				</g>
				<g id="shape18592-9">
					<title>path12</title>
					<path d="M23.81 75.72 L23.81 91.33 L19.33 87.13 L17.33 89.02 L23.23 94.51 L25.23 96.38 L27.26 94.51 L33.16 89.02
								 L31.16 87.13 L26.65 91.33 L26.65 75.72 L23.81 75.72 ZM13 74.56 L11 72.7 L2.84 80.29 L2.84 74.38
								 L0 74.38 L0 84.8 L11.2 84.8 L11.2 82.16 L4.84 82.16 L13 74.56 Z" class="st4"/>
				</g>
				<g id="shape18593-11" transform="translate(29.6413,-32.0489)">
					<title>ellipse14</title>
					<ellipse cx="10.6911" cy="86.426" rx="10.6911" ry="9.95192" class="st3"/>
				</g>
				<g id="shape18594-13" transform="translate(31.4907,-34.4856)">
					<title>path16</title>
					<path d="M8.16 80.37 A9.19641 8.56054 -180 0 0 0 89.81 A9.17108 8.53695 -180 1 0 14.82 82.21 A9.09507 8.4662
								 -180 0 0 9.15 80.35 A5.70026 5.30612 0 0 1 8.16 80.35 L8.16 80.37 Z" class="st5"/>
					<path d="M8.16 80.37 A9.19641 8.56054 -180 0 0 0 89.81 A9.17108 8.53695 -180 1 0 14.82 82.21 A9.09507 8.4662
								 -180 0 0 9.15 80.35 A5.70026 5.30612 0 0 1 8.16 80.35" class="st6"/>
				</g>
				<g id="shape18595-16" transform="translate(35.6456,-32.0254)">
					<title>path18</title>
					<path d="M15.3 85.39 A10.6911 9.95192 -180 0 0 11.27 78.62 C10.84 78.34 10.41 78.03 9.96 77.82 L9.1 79.33 A5.64959
								 5.25895 0 0 1 10.08 79.96 A8.76573 8.15963 0 0 1 13.38 85.58 A8.86706 8.25396 0 0 1 5.47 94.68 A8.8164
								 8.20679 0 0 1 0.86 94 L0 95.51 A10.1338 9.4331 -180 0 0 5.67 96.38 A10.8685 10.117 -180 0 0 12.95
								 92.7 A10.5645 9.834 -180 0 0 15.3 85.39 Z" class="st2"/>
				</g>
				<g id="shape18596-18" transform="translate(29.6413,-32.8979)">
					<title>path20</title>
					<path d="M5.04 93.81 A8.8924 8.27754 0 0 1 15.18 80.25 L16.06 78.74 A10.5391 9.81042 -180 0 0 9.68 77.3 A10.9192
								 10.1642 -180 0 0 2.31 81.07 A10.5391 9.81042 -180 0 0 -0 88.38 A10.8685 10.117 -180 0 0 3.93 95.1
								 A10.3365 9.62176 -180 0 0 6.18 96.38 L7.14 94.87 A8.91773 8.30113 0 0 1 5.04 93.81 Z" class="st1"/>
				</g>
				<g id="shape18597-20" transform="translate(40.2518,-39.3832)">
					<title>path22</title>
					<path d="M4.64 96.38 L0.54 94.99 a0.871506 0.811246 0 1 1 0.633362 -1.5093 L5.27 94.87 a0.861372 0.801813 0 0
								 1 0.506689 1.03764 a0.937375 0.872561 0 0 1 -1.14005 0.471655 Z" class="st7"/>
				</g>
				<g id="shape18598-22" transform="translate(38.8631,-40.3737)">
					<title>path24</title>
					<path d="M1.42 96.38 A1.41873 1.32063 0 0 1 0 95.06 L0 88.29 A1.4314 1.33242 0 0 1 2.86 88.29 L2.86 95.06 A1.41873
								 1.32063 0 0 1 1.42 96.38 Z" class="st4"/>
				</g>
				<g id="shape18599-24" transform="translate(38.2804,-39.8548)">
					<title>path26</title>
					<path d="M2 86.94 a0.861372 0.801813 0 0 1 0.861372 0.801813 L2.86 94.54 a0.874039 0.813605 0 0 1 -1.74808 0
								 L1.11 87.77 a0.861372 0.801813 0 0 1 0.861372 -0.801813 L2 86.94 ZM1.98 85.93 A1.95075 1.81587 -180
								 0 0 -0 87.77 L0 94.54 A1.97609 1.83945 -180 0 0 3.95 94.54 L3.95 87.77 A1.95075 1.81587 -180 0 0
								 1.98 85.93 Z" class="st5"/>
					<path d="M2 86.94 a0.861372 0.801813 0 0 1 0.861372 0.801813 L2.86 94.54 a0.874039 0.813605 0 0 1 -1.74808 0
								 L1.11 87.77 a0.861372 0.801813 0 0 1 0.861372 -0.801813M1.98 85.93 A1.95075 1.81587 -180 0 0 -0
								 87.77 L0 94.54 A1.97609 1.83945 -180 0 0 3.95 94.54 L3.95 87.77 A1.95075 1.81587 -180 0 0 1.98 85.93"
							class="st6"/>
				</g>
				<g id="shape18600-27" transform="translate(39.0151,-40.5387)">
					<title>circle28</title>
					<ellipse cx="1.24139" cy="95.2224" rx="1.24139" ry="1.15555" class="st8"/>
				</g>
				<g id="shape18601-29" transform="translate(37.8497,-11.5791)">
					<title>path30</title>
					<path d="M13 96.38 L13 85.95 L10.16 85.95 L10.16 91.87 L2 84.28 L0 86.14 L8.16 93.74 L1.8 93.74 L1.8 96.38 L13
								 96.38 Z" class="st4"/>
				</g>
				<g id="shape18602-31" transform="translate(11.1725,-47.4956)">
					<title>path32</title>
					<path d="M25.03 90.2 A37.6724 35.0675 -180 0 0 14.24 88.93 C6.41 88.93 0 90.58 0 92.65 C0 94.73 6.49 96.38 14.34
								 96.38 L17.4 96.38 A13.2753 12.3574 0 0 1 25.03 90.2 Z" class="st9"/>
				</g>
				<g id="shape18603-33" transform="translate(11.1725,-48.9814)">
					<title>path34</title>
					<path d="M25.01 91.68 A37.039 34.478 -180 0 0 14.24 90.41 C6.41 90.41 0 92.06 0 94.14 C0 94.96 1.14 95.79 2.96
								 96.38 A34.6829 32.2848 0 0 1 14.24 94.96 A48.3635 45.0195 0 0 1 19.3 95.2 A13.2499 12.3338 0 0 1
								 25.01 91.68 Z" class="st10"/>
				</g>
			</g>
		</g>
	</g>
</svg>
